packages/core/src/svgs/tokens/mono/ZCN.svg

<svg width="24" height="24" viewBox="0 0 24 24" fill="none" xmlns="http://www.w3.org/2000/svg">
<path d="M17.3225 4.50124C16.6808 3.69077 15.8551 3.04501 14.9137 2.6175C13.9966 2.20961 13.0039 1.99921 12 2C10.9919 2 9.99698 2.21063 9.08625 2.6175C8.14452 3.04501 7.31818 3.69074 6.67568 4.50124C5.95212 5.43206 5.41153 6.49158 5.08256 7.62372C4.67052 9.05169 4.47501 10.5333 4.50255 12.0193C4.47569 13.4987 4.67131 14.9738 5.08256 16.4018C5.4107 17.5336 5.95207 18.592 6.67755 19.5205C7.32042 20.3276 8.14695 20.9691 9.08815 21.3919C10.0006 21.7917 10.9945 22 12 22C13.0062 22 14.0001 21.7925 14.9118 21.3919C15.8525 20.9679 16.6786 20.3266 17.3225 19.5205C18.0467 18.5913 18.588 17.533 18.9176 16.4018C19.3288 14.9738 19.5238 13.4987 19.4976 12.0193C19.5251 10.5333 19.3296 9.05169 18.9176 7.62372C18.588 6.49146 18.0467 5.43193 17.3225 4.50124ZM11.9901 20.7499C10.3881 20.7562 8.84254 20.1699 7.80005 18.9412L16.7625 5.78748C17.8769 7.62873 18.2901 9.87808 18.25 12.0081C18.3232 15.8693 16.6312 20.7693 11.9988 20.7493L11.9901 20.7499ZM5.75005 12.0087C5.68568 8.52623 6.8313 4.28249 10.6825 3.38436C11.9164 3.09646 13.211 3.22478 14.3644 3.74937C15.0132 4.05436 15.6082 4.35 16.0738 4.87374L7.13317 18.0037C6.08506 16.1837 5.71193 14.0862 5.75005 12.0087Z" fill="white"/>
</svg>

<svg xmlns="http://www.w3.org/2000/svg" width="24" height="24" fill="none" viewBox="0 0 24 24">
    <path fill="#fff" d="M17.323 4.501a6.5 6.5 0 0 0-2.41-1.884A7.2 7.2 0 0 0 12 2a7.15 7.15 0 0 0-2.914.618A6.5 6.5 0 0 0 6.676 4.5a9.3 9.3 0 0 0-1.593 3.123 14.9 14.9 0 0 0-.58 4.395c-.027 1.48.168 2.955.58 4.383a9.3 9.3 0 0 0 1.595 3.118 6.5 6.5 0 0 0 2.41 1.872 7.26 7.26 0 0 0 5.824 0 6.5 6.5 0 0 0 2.41-1.872 9.3 9.3 0 0 0 1.596-3.118c.41-1.428.606-2.903.58-4.383a14.9 14.9 0 0 0-.58-4.395A9.3 9.3 0 0 0 17.323 4.5M11.99 20.75c-1.602.006-3.147-.58-4.19-1.809l8.963-13.154c1.114 1.842 1.527 4.091 1.487 6.221.073 3.861-1.619 8.761-6.251 8.741zm-6.24-8.741c-.064-3.483 1.081-7.727 4.932-8.625a5.74 5.74 0 0 1 3.682.365c.65.305 1.244.601 1.71 1.125l-8.94 13.13c-1.049-1.82-1.422-3.918-1.384-5.995"/>
</svg>
